vectors/skrill/skrill.svg

<svg version="1.1" xmlns="http://www.w3.org/2000/svg" xmlns:xlink="http://www.w3.org/1999/xlink" viewBox="0 0 24 24"><title>Skrill icon</title><path d="M12.1401 8.83333L12.1431 8.83353C17.8775 9.21768 21.2956 12.0247 21.2956 16.3451C21.2956 20.1555 18.241 24 11.421 24C8.26061 24 5.564 23.6866 3.1719 23.0596V17.5114C4.7698 18.1672 7.40053 18.8589 10.1125 18.8589C12.5872 18.8589 14.0586 18.0388 14.0586 16.648C14.0586 14.9704 12.2759 14.8609 11.5925 14.8189L11.5842 14.8184C3.59604 14.2736 2.73596 9.55103 2.73596 7.54439C2.73596 4.06342 5.20738 0 12.1824 0C16.2278 0 18.4098 0.631622 20.2863 1.28816L20.3827 1.31667V6.70365L20.3126 6.68464C19.5577 6.3644 18.6707 6.05171 18.6707 6.05171C17.0807 5.57611 14.8541 5.06805 13.1349 5.06805C12.1572 5.06805 9.5504 5.06805 9.5504 7.03503C9.5504 8.66294 11.3563 8.78176 12.1401 8.83333Z" fill="url(#paint0_linear)"/>
<defs>
<linearGradient id="paint0_linear" x1="22.8378" y1="-1.38816" x2="28.423" y2="29.9267" gradientUnits="userSpaceOnUse">
<stop stop-color="#6B195F"/>
<stop offset="1" stop-color="#4C255B"/>
</linearGradient>
</defs>
</svg>

<svg xmlns="http://www.w3.org/2000/svg" viewBox="0 0 24 24"><path d="M12.14 8.833h.003c5.735.385 9.153 3.192 9.153 7.512 0 3.81-3.055 7.655-9.875 7.655-3.16 0-5.857-.313-8.25-.94v-5.55c1.599.656 4.23 1.348 6.942 1.348 2.474 0 3.946-.82 3.946-2.211 0-1.678-1.783-1.787-2.466-1.83h-.009c-7.988-.544-8.848-5.267-8.848-7.274C2.736 4.064 5.207 0 12.182 0c4.046 0 6.228.632 8.104 1.288l.097.029v5.387l-.07-.02c-.755-.32-1.642-.632-1.642-.632-1.59-.476-3.817-.984-5.536-.984-.978 0-3.585 0-3.585 1.967 0 1.628 1.806 1.747 2.59 1.798z" fill="url(#paint0_linear)"/><defs><linearGradient id="paint0_linear" x1="22.838" y1="-1.388" x2="28.423" y2="29.927" gradientUnits="userSpaceOnUse"><stop stop-color="#6B195F"/><stop offset="1" stop-color="#4C255B"/></linearGradient></defs></svg>
